lib/brands/icons/apple-siri.svg

<svg xmlns="http://www.w3.org/2000/svg" fill="none" aria-hidden="true" viewBox="0 0 48 49"><g id="apple-siri-Icon"><g id="Group"><path id="Vector" fill="url(#paint0_linear_94_17049)" d="M41.7957 24.0175C41.7957 33.8639 33.8136 41.846 23.9672 41.846C14.1208 41.846 6.13867 33.8639 6.13867 24.0175C6.13867 14.1711 14.1208 6.18903 23.9672 6.18903C33.8136 6.18903 41.7957 14.1711 41.7957 24.0175Z"/><g id="Union"><path fill="white" d="M28.4614 15.1581C28.4614 12.748 26.47 10.8077 23.9964 10.8077C21.5228 10.8077 19.5315 12.748 19.5315 15.1581V24.3169C19.5315 26.727 21.5228 28.6674 23.9964 28.6674C26.47 28.6674 28.4614 26.727 28.4614 24.3169V15.1581Z"/><path fill="white" d="M23.7323 30.5551C20.2072 30.4249 17.4004 27.5367 17.4004 23.9792V20.1828H17.8768V23.9494C17.8768 27.3297 20.6009 30.0535 23.9809 30.0535C27.3609 30.0535 30.085 27.3297 30.085 23.9494V20.1828H30.5465V23.9792C30.5465 27.5197 27.7806 30.3972 24.2801 30.553V35.0733H28.3343V35.5761H19.5762V35.0733H23.7323V30.5551Z"/></g><path id="Vector_2" fill="white" d="M23.9988 6.04016C14.08 6.04016 6.04004 14.0814 6.04004 24.0002C6.04004 33.9189 14.08 41.9602 23.9988 41.9602C33.9176 41.9602 41.9588 33.9189 41.9588 24.0002C41.9588 14.0814 33.9176 6.04016 23.9988 6.04016ZM23.9988 6.68693C33.5608 6.68693 41.3133 14.4382 41.3133 24.0002C41.3133 33.5622 33.5608 41.3134 23.9988 41.3134C14.4368 41.3134 6.68556 33.5622 6.68556 24.0002C6.6856 14.4382 14.4368 6.68693 23.9988 6.68693V6.68693Z"/><path id="Vector (Stroke)" fill="#959698" fill-rule="evenodd" d="M6 24.0002C6 14.0593 14.0579 6.00018 23.9988 6.00018C33.9397 6.00018 41.9988 14.0593 41.9988 24.0002C41.9988 33.9411 33.9396 42.0002 23.9988 42.0002C14.0579 42.0002 6 33.941 6 24.0002ZM23.9988 6.08017C14.1021 6.08017 6.07999 14.1035 6.07999 24.0002C6.07999 33.8969 14.1021 41.9202 23.9988 41.9202C33.8954 41.9202 41.9188 33.8969 41.9188 24.0002C41.9188 14.1035 33.8955 6.08017 23.9988 6.08017ZM23.9988 6.72694C14.4589 6.72694 6.72555 14.4603 6.72551 24.0002C6.72551 33.5401 14.4589 41.2734 23.9988 41.2734C33.5387 41.2734 41.2733 33.5401 41.2733 24.0002C41.2733 14.4603 33.5387 6.72694 23.9988 6.72694ZM6.64552 24.0002C6.64556 14.4161 14.4147 6.64695 23.9988 6.64695C33.5829 6.64695 41.3533 14.4161 41.3533 24.0002C41.3533 33.5843 33.5829 41.3534 23.9988 41.3534C14.4147 41.3534 6.64552 33.5843 6.64552 24.0002Z" clip-rule="evenodd"/></g></g><defs><linearGradient id="paint0_linear_94_17049" x1="24.0964" x2="23.838" y1="6.94682" y2="41.4513" gradientUnits="userSpaceOnUse"><stop stop-color="#B4B3B4"/><stop offset="1" stop-color="#6B6F71"/></linearGradient></defs></svg>

<svg xmlns="http://www.w3.org/2000/svg" fill="none" aria-hidden="true" viewBox="0 0 48 49"><path fill="url(#a)" d="M41.796 24.017c0 9.847-7.982 17.829-17.829 17.829-9.846 0-17.828-7.982-17.828-17.828 0-9.847 7.982-17.829 17.828-17.829 9.847 0 17.829 7.982 17.829 17.828Z"/><path fill="#fff" d="M28.461 15.158c0-2.41-1.991-4.35-4.465-4.35-2.473 0-4.464 1.94-4.464 4.35v9.159c0 2.41 1.99 4.35 4.464 4.35s4.465-1.94 4.465-4.35v-9.159Z"/><path fill="#fff" d="M23.732 30.555a6.572 6.572 0 0 1-6.332-6.576v-3.796h.477v3.766a6.093 6.093 0 0 0 6.104 6.104 6.093 6.093 0 0 0 6.104-6.104v-3.766h.462v3.796a6.56 6.56 0 0 1-6.267 6.574v4.52h4.054v.503h-8.758v-.503h4.156v-4.518Z"/><path fill="#fff" d="M23.999 6.04C14.08 6.04 6.04 14.081 6.04 24S14.08 41.96 24 41.96 41.959 33.92 41.959 24 33.918 6.04 23.999 6.04Zm0 .647c9.562 0 17.314 7.751 17.314 17.313 0 9.562-7.752 17.313-17.314 17.313-9.562 0-17.313-7.75-17.313-17.313 0-9.562 7.751-17.313 17.313-17.313Z"/><path fill="#959698" fill-rule="evenodd" d="M6 24c0-9.94 8.058-18 18-18 9.94 0 18 8.06 18 18 0 9.941-8.06 18-18 18-9.942 0-18-8.059-18-18ZM24 6.08C14.102 6.08 6.08 14.104 6.08 24c0 9.897 8.022 17.92 17.919 17.92s17.92-8.023 17.92-17.92c0-9.896-8.023-17.92-17.92-17.92Zm0 .647C14.459 6.727 6.726 14.46 6.726 24s7.733 17.273 17.273 17.273S41.273 33.54 41.273 24 33.54 6.727 24 6.727ZM6.646 24c0-9.584 7.769-17.353 17.353-17.353 9.584 0 17.354 7.77 17.354 17.353 0 9.584-7.77 17.353-17.354 17.353S6.646 33.584 6.646 24Z" clip-rule="evenodd"/><defs><linearGradient id="a" x1="24.097" x2="23.838" y1="6.947" y2="41.451" gradientUnits="userSpaceOnUse"><stop stop-color="#B4B3B4"/><stop offset="1" stop-color="#6B6F71"/></linearGradient></defs></svg>
